X: 1
T: Ferrintosh
C: Capt. Simon Fraser
O: Skye Coll.
R: strathspey
Z: 2019 John Chambers <jc:trillian.mit.edu>
M: C
L: 1/16
K: D
"^A"[|] z2 |\
"D"A,3D D4 FD3 D3F | "A7"G3E C3A, CDE2 G4 |\
"D"A,3D D4 FD3 D3c | d3A F3D FGA2 "A7"d4 ||
"D"A,3D D4 FD3 D3F | "A7"G3E C3A, CDE2 G3g |\
"D7"f3d cde2 "G"B3G FGA2 | "A7"G3E CA,3 "D"D4 D2 |]
"^B"[|] g2 |\
"D"f3d fga2 fd3 d3f | "A7"g3e c3A cde2 g4 |\
"D"f3d fga2 fd3 d3g | "D"f3d ad3 "G"bd3 "A7"a3g ||
"D"f3d fga2 fd3 d3f | "A7"g3e c3A cde2 g4 |\
"D7"f3d cde2 "G"B3G FGA2 | "A7"G3E CA,3 "D"D4 D2 |]
